source/images/icons/property/property-2.svg

<svg width="160" height="160" viewBox="0 0 160 160" fill="none" xmlns="http://www.w3.org/2000/svg">
<path d="M119.821 47.011H40.3301C38.5691 47.011 37.1421 48.438 37.1421 50.199V96.612C37.1421 98.375 38.5691 99.801 40.3301 99.801H119.822C121.584 99.801 123.011 98.374 123.011 96.612V50.199C123.011 48.438 121.583 47.011 119.821 47.011ZM45.3921 80.236H45.1661C43.4041 80.236 41.9771 78.807 41.9771 77.047V69.764C41.9771 68.003 43.4041 66.576 45.1661 66.576H45.3921V80.236ZM106.623 95.408H50.3411V51.402H106.623V95.408ZM115.4 77.552C113.111 77.552 111.254 75.697 111.254 73.405C111.254 71.113 113.11 69.258 115.4 69.258C117.691 69.258 119.548 71.113 119.548 73.405C119.548 75.697 117.691 77.552 115.4 77.552Z" fill="#363636"/>
<path d="M91.6541 43H68.4971V45.758H91.6541V43Z" fill="#363636"/>
<path d="M83.6081 107.861V104.888H91.6541V102.13H68.4981V104.888H76.5431V140.134C74.4041 141.072 72.9081 143.206 72.9081 145.693V160H87.2431V145.693C87.2431 143.207 85.7481 141.072 83.6071 140.136V112.146H88.4031L93.4541 113.359V106.648L88.4031 107.861H83.6081Z" fill="#363636"/>
</svg>

<svg width="160" height="160" viewBox="0 0 160 160" fill="none" xmlns="http://www.w3.org/2000/svg"><path d="M119.82 47.01H40.33a3.19 3.19 0 00-3.19 3.19v46.4a3.19 3.19 0 003.19 3.2h79.5a3.19 3.19 0 003.18-3.2V50.2a3.19 3.19 0 00-3.19-3.19zM45.4 80.24h-.22a3.19 3.19 0 01-3.2-3.2v-7.28a3.19 3.19 0 013.2-3.18h.22v13.66zm61.23 15.17H50.34v-44h56.28v44zm8.78-17.86a4.15 4.15 0 110-8.29 4.15 4.15 0 010 8.3zM91.65 43H68.5v2.76h23.15V43zm-8.05 64.86v-2.97h8.05v-2.76H68.5v2.76h8.04v35.24a6.07 6.07 0 00-3.63 5.56V160h14.33v-14.3c0-2.5-1.5-4.63-3.63-5.56v-28h4.8l5.04 1.22v-6.71l-5.05 1.21h-4.8z" fill="#363636"/></svg>
